static/img/kroki/ef05eeb40034cc16620dc914348d0e5a.svg

<?xml version="1.0" encoding="us-ascii" standalone="no"?><svg xmlns="http://www.w3.org/2000/svg" xmlns:xlink="http://www.w3.org/1999/xlink" contentStyleType="text/css" height="252px" preserveAspectRatio="none" style="width:678px;height:252px;" version="1.1" viewBox="0 0 678 252" width="678px" zoomAndPan="magnify"><defs/><g><!--class aws_cognito_group--><g id="elem_aws_cognito_group"><rect codeLine="23" fill="#3D176E" height="39.7891" id="aws_cognito_group" rx="2.5" ry="2.5" style="stroke:#000D19;stroke-width:0.5;" width="202" x="7" y="206.58"/><ellipse cx="22" cy="226.4745" fill="#ADD1B2" rx="11" ry="11" style="stroke:#181818;stroke-width:1.0;"/><path d="M24.9688,232.1152 Q24.3906,232.412 23.75,232.5527 Q23.1094,232.7089 22.4063,232.7089 Q19.9063,232.7089 18.5781,231.0683 Q17.2656,229.412 17.2656,226.287 Q17.2656,223.162 18.5781,221.5058 Q19.9063,219.8495 22.4063,219.8495 Q23.1094,219.8495 23.75,220.0058 Q24.4063,220.162 24.9688,220.4589 L24.9688,223.1777 Q24.3438,222.5995 23.75,222.3339 Q23.1563,222.0527 22.5313,222.0527 Q21.1875,222.0527 20.5,223.1308 Q19.8125,224.1933 19.8125,226.287 Q19.8125,228.3808 20.5,229.4589 Q21.1875,230.5214 22.5313,230.5214 Q23.1563,230.5214 23.75,230.2558 Q24.3438,229.9745 24.9688,229.3964 L24.9688,232.1152 Z " fill="#000000"/><text fill="#D9B8FF" font-family="Helvetica" font-size="17" lengthAdjust="spacing" textLength="160" x="41" y="232.3598">aws_cognito_group</text></g><!--class aws_cognito_user_pool--><g id="elem_aws_cognito_user_pool"><rect codeLine="26" fill="#3D176E" height="39.7891" id="aws_cognito_user_pool" rx="2.5" ry="2.5" style="stroke:#000D19;stroke-width:0.5;" width="234" x="76" y="106.79"/><ellipse cx="91" cy="126.6845" fill="#ADD1B2" rx="11" ry="11" style="stroke:#181818;stroke-width:1.0;"/><path d="M93.9688,132.3252 Q93.3906,132.622 92.75,132.7627 Q92.1094,132.9189 91.4063,132.9189 Q88.9063,132.9189 87.5781,131.2783 Q86.2656,129.622 86.2656,126.497 Q86.2656,123.372 87.5781,121.7158 Q88.9063,120.0595 91.4063,120.0595 Q92.1094,120.0595 92.75,120.2158 Q93.4063,120.372 93.9688,120.6689 L93.9688,123.3877 Q93.3438,122.8095 92.75,122.5439 Q92.1563,122.2627 91.5313,122.2627 Q90.1875,122.2627 89.5,123.3408 Q88.8125,124.4033 88.8125,126.497 Q88.8125,128.5908 89.5,129.6689 Q90.1875,130.7314 91.5313,130.7314 Q92.1563,130.7314 92.75,130.4658 Q93.3438,130.1845 93.9688,129.6064 L93.9688,132.3252 Z " fill="#000000"/><text fill="#D9B8FF" font-family="Helvetica" font-size="17" lengthAdjust="spacing" textLength="192" x="110" y="132.5698">aws_cognito_user_pool</text></g><!--class aws_sagemaker_labeling_job--><g id="elem_aws_sagemaker_labeling_job"><rect codeLine="29" fill="#3D176E" height="39.7891" id="aws_sagemaker_labeling_job" rx="2.5" ry="2.5" style="stroke:#000D19;stroke-width:0.5;" width="285" x="344.5" y="106.79"/><ellipse cx="359.5" cy="126.6845" fill="#ADD1B2" rx="11" ry="11" style="stroke:#181818;stroke-width:1.0;"/><path d="M362.4688,132.3252 Q361.8906,132.622 361.25,132.7627 Q360.6094,132.9189 359.9063,132.9189 Q357.4063,132.9189 356.0781,131.2783 Q354.7656,129.622 354.7656,126.497 Q354.7656,123.372 356.0781,121.7158 Q357.4063,120.0595 359.9063,120.0595 Q360.6094,120.0595 361.25,120.2158 Q361.9063,120.372 362.4688,120.6689 L362.4688,123.3877 Q361.8438,122.8095 361.25,122.5439 Q360.6563,122.2627 360.0313,122.2627 Q358.6875,122.2627 358,123.3408 Q357.3125,124.4033 357.3125,126.497 Q357.3125,128.5908 358,129.6689 Q358.6875,130.7314 360.0313,130.7314 Q360.6563,130.7314 361.25,130.4658 Q361.8438,130.1845 362.4688,129.6064 L362.4688,132.3252 Z " fill="#000000"/><text fill="#D9B8FF" font-family="Helvetica" font-size="17" lengthAdjust="spacing" textLength="243" x="378.5" y="132.5698">aws_sagemaker_labeling_job</text></g><!--class aws_sagemaker_workteam--><g id="elem_aws_sagemaker_workteam"><rect codeLine="32" fill="#3D176E" height="39.7891" id="aws_sagemaker_workteam" rx="2.5" ry="2.5" style="stroke:#000D19;stroke-width:0.5;" width="271" x="204.5" y="7"/><ellipse cx="219.5" cy="26.8945" fill="#ADD1B2" rx="11" ry="11" style="stroke:#181818;stroke-width:1.0;"/><path d="M222.4688,32.5352 Q221.8906,32.832 221.25,32.9727 Q220.6094,33.1289 219.9063,33.1289 Q217.4063,33.1289 216.0781,31.4883 Q214.7656,29.832 214.7656,26.707 Q214.7656,23.582 216.0781,21.9258 Q217.4063,20.2695 219.9063,20.2695 Q220.6094,20.2695 221.25,20.4258 Q221.9063,20.582 222.4688,20.8789 L222.4688,23.5977 Q221.8438,23.0195 221.25,22.7539 Q220.6563,22.4727 220.0313,22.4727 Q218.6875,22.4727 218,23.5508 Q217.3125,24.6133 217.3125,26.707 Q217.3125,28.8008 218,29.8789 Q218.6875,30.9414 220.0313,30.9414 Q220.6563,30.9414 221.25,30.6758 Q221.8438,30.3945 222.4688,29.8164 L222.4688,32.5352 Z " fill="#000000"/><text fill="#D9B8FF" font-family="Helvetica" font-size="17" lengthAdjust="spacing" textLength="229" x="238.5" y="32.7798">aws_sagemaker_workteam</text></g><!--class aws_sns_topic--><g id="elem_aws_sns_topic"><rect codeLine="35" fill="#3D176E" height="39.7891" id="aws_sns_topic" rx="2.5" ry="2.5" style="stroke:#000D19;stroke-width:0.5;" width="160" x="504" y="206.58"/><ellipse cx="519" cy="226.4745" fill="#ADD1B2" rx="11" ry="11" style="stroke:#181818;stroke-width:1.0;"/><path d="M521.9688,232.1152 Q521.3906,232.412 520.75,232.5527 Q520.1094,232.7089 519.4063,232.7089 Q516.9063,232.7089 515.5781,231.0683 Q514.2656,229.412 514.2656,226.287 Q514.2656,223.162 515.5781,221.5058 Q516.9063,219.8495 519.4063,219.8495 Q520.1094,219.8495 520.75,220.0058 Q521.4063,220.162 521.9688,220.4589 L521.9688,223.1777 Q521.3438,222.5995 520.75,222.3339 Q520.1563,222.0527 519.5313,222.0527 Q518.1875,222.0527 517.5,223.1308 Q516.8125,224.1933 516.8125,226.287 Q516.8125,228.3808 517.5,229.4589 Q518.1875,230.5214 519.5313,230.5214 Q520.1563,230.5214 520.75,230.2558 Q521.3438,229.9745 521.9688,229.3964 L521.9688,232.1152 Z " fill="#000000"/><text fill="#D9B8FF" font-family="Helvetica" font-size="17" lengthAdjust="spacing" textLength="118" x="538" y="232.3598">aws_sns_topic</text></g><!--link aws_cognito_user_pool to aws_cognito_group--><g id="link_aws_cognito_user_pool_aws_cognito_group"><path codeLine="38" d="M176.21,147.01 C161.31,164.15 143.5849,184.5305 128.6949,201.6705 " fill="none" id="aws_cognito_user_pool-to-aws_cognito_group" style="stroke:#1A83AF;stroke-width:2.0;"/><polygon fill="#1A83AF" points="124.76,206.2,133.682,202.029,128.0391,202.4254,127.6427,196.7825,124.76,206.2" style="stroke:#1A83AF;stroke-width:2.0;"/></g><!--link aws_sagemaker_labeling_job to aws_sns_topic--><g id="link_aws_sagemaker_labeling_job_aws_sns_topic"><path codeLine="39" d="M506.16,147.01 C523.17,164.15 543.6548,184.8 560.6548,201.94 " fill="none" id="aws_sagemaker_labeling_job-to-aws_sns_topic" style="stroke:#1A83AF;stroke-width:2.0;"/><polygon fill="#1A83AF" points="564.88,206.2,561.3822,196.9932,561.359,202.65,555.7022,202.6268,564.88,206.2" style="stroke:#1A83AF;stroke-width:2.0;"/></g><!--link aws_sagemaker_workteam to aws_cognito_group--><g id="link_aws_sagemaker_workteam_aws_cognito_group"><path codeLine="40" d="M216.82,47.29 C150.38,60.53 77.97,80.47 58,106.79 C34.49,137.79 61.9976,177.0462 84.6176,201.8562 " fill="none" id="aws_sagemaker_workteam-to-aws_cognito_group" style="stroke:#1A83AF;stroke-width:2.0;"/><polygon fill="#1A83AF" points="88.66,206.29,85.5522,196.9443,85.2913,202.5952,79.6405,202.3342,88.66,206.29" style="stroke:#1A83AF;stroke-width:2.0;"/></g><!--link aws_sagemaker_workteam to aws_cognito_user_pool--><g id="link_aws_sagemaker_workteam_aws_cognito_user_pool"><path codeLine="41" d="M310.96,47.22 C285.19,64.36 252.7353,85.9463 226.9753,103.0863 " fill="none" id="aws_sagemaker_workteam-to-aws_cognito_user_pool" style="stroke:#1A83AF;stroke-width:2.0;"/><polygon fill="#1A83AF" points="221.98,106.41,231.6887,104.7546,226.1427,103.6402,227.2571,98.0942,221.98,106.41" style="stroke:#1A83AF;stroke-width:2.0;"/></g><!--link aws_sagemaker_workteam to aws_sagemaker_labeling_job--><g id="link_aws_sagemaker_workteam_aws_sagemaker_labeling_job"><path codeLine="42" d="M369.04,47.22 C394.81,64.36 427.2753,85.9454 453.0253,103.0854 " fill="none" id="aws_sagemaker_workteam-to-aws_sagemaker_labeling_job" style="stroke:#1A83AF;stroke-width:2.0;"/><polygon fill="#1A83AF" points="458.02,106.41,452.7444,98.0933,453.8578,103.6395,448.3116,104.7529,458.02,106.41" style="stroke:#1A83AF;stroke-width:2.0;"/></g><!--link aws_sagemaker_workteam to aws_sns_topic--><g id="link_aws_sagemaker_workteam_aws_sns_topic"><path codeLine="43" d="M475.64,46.17 C547.46,58.93 625.25,78.74 647,106.79 C671.73,138.68 638.7043,177.6281 611.8043,202.1481 " fill="none" id="aws_sagemaker_workteam-to-aws_sns_topic" style="stroke:#1A83AF;stroke-width:2.0;"/><polygon fill="#1A83AF" points="607.37,206.19,616.716,203.0833,611.0652,202.8217,611.3268,197.1709,607.37,206.19" style="stroke:#1A83AF;stroke-width:2.0;"/></g><!--SRC=[bP1DJy9048Rl_HMRS2QX4WKk9fM4w8KOyMPCC-rEozfsfvbTRD3utsr5cz8FmEk-p-myxsoLH85PRlSYmon0Dev9bCw18HCUCnLBIed5A8eWcixQuOgqFGki8KDnZ-axMXL2ctZUgZ3HQ8ouQaHt42OnqqxBm_UMGPioGcqRr385OpnhMGKxYmqPkGZcKTGcsv-EfjATtM078vR8lyXaCf7keesSNNMoTqrir0SAjtcqDLdiQ7PM_50dBIkY8Taf-fSFEZw2b4h7uhhnzdHmOeryzBxPWgIYeYD8JNEDiSX8Tf_ZijCA5tCPpNhXXo7O2QlJ2IYC7rAibIM_mdBnwJXVFU7E8FivKTe63CIOGLAcAGIObkx-6mN3L46SM2mbsuGslgLSXOUWV_VuPUHwywctUXtVTjsT4pwToNgVC-3thrtdf-eI5q_sDxbyl2xu3G00]--></g></svg>

<svg xmlns="http://www.w3.org/2000/svg" width="678" height="252" viewBox="0 0 678 252"><rect width="202" height="39.789" x="7" y="206.58" fill="#3D176E" rx="2.5" ry="2.5" style="stroke:#000d19;stroke-width:.5"/><circle cx="22" cy="226.475" r="11" fill="#ADD1B2" style="stroke:#181818;stroke-width:1"/><path d="M24.969 232.115q-.578.297-1.219.438-.64.156-1.344.156-2.5 0-3.828-1.64-1.312-1.657-1.312-4.782t1.312-4.781q1.328-1.656 3.828-1.656.703 0 1.344.156.656.156 1.219.453v2.719q-.625-.578-1.219-.844-.594-.281-1.219-.281-1.343 0-2.031 1.078-.687 1.062-.687 3.156t.687 3.172q.688 1.062 2.031 1.062.625 0 1.219-.265.594-.281 1.219-.86z"/><text x="41" y="232.36" fill="#D9B8FF" font-family="Helvetica" font-size="17" textLength="160">aws_cognito_group</text><rect width="234" height="39.789" x="76" y="106.79" fill="#3D176E" rx="2.5" ry="2.5" style="stroke:#000d19;stroke-width:.5"/><circle cx="91" cy="126.684" r="11" fill="#ADD1B2" style="stroke:#181818;stroke-width:1"/><path d="M93.969 132.325q-.578.297-1.219.438-.64.156-1.344.156-2.5 0-3.828-1.64-1.312-1.657-1.312-4.782t1.312-4.781q1.328-1.656 3.828-1.656.703 0 1.344.156.656.156 1.219.453v2.719q-.625-.579-1.219-.844-.594-.281-1.219-.281-1.344 0-2.031 1.078-.687 1.062-.687 3.156t.687 3.172q.688 1.062 2.031 1.062.625 0 1.219-.265.594-.281 1.219-.86z"/><text x="110" y="132.57" fill="#D9B8FF" font-family="Helvetica" font-size="17" textLength="192">aws_cognito_user_pool</text><rect width="285" height="39.789" x="344.5" y="106.79" fill="#3D176E" rx="2.5" ry="2.5" style="stroke:#000d19;stroke-width:.5"/><circle cx="359.5" cy="126.684" r="11" fill="#ADD1B2" style="stroke:#181818;stroke-width:1"/><path d="M362.469 132.325q-.578.297-1.219.438-.64.156-1.344.156-2.5 0-3.828-1.64-1.312-1.657-1.312-4.782t1.312-4.781q1.328-1.656 3.828-1.656.703 0 1.344.156.656.156 1.219.453v2.719q-.625-.579-1.219-.844-.594-.281-1.219-.281-1.344 0-2.031 1.078-.687 1.062-.687 3.156t.687 3.172q.688 1.062 2.031 1.062.625 0 1.219-.265.594-.281 1.219-.86z"/><text x="378.5" y="132.57" fill="#D9B8FF" font-family="Helvetica" font-size="17" textLength="243">aws_sagemaker_labeling_job</text><rect width="271" height="39.789" x="204.5" y="7" fill="#3D176E" rx="2.5" ry="2.5" style="stroke:#000d19;stroke-width:.5"/><circle cx="219.5" cy="26.895" r="11" fill="#ADD1B2" style="stroke:#181818;stroke-width:1"/><path d="M222.469 32.535q-.578.297-1.219.438-.64.156-1.344.156-2.5 0-3.828-1.64-1.312-1.657-1.312-4.782t1.312-4.781q1.328-1.656 3.828-1.656.703 0 1.344.156.656.156 1.219.453v2.719q-.625-.578-1.219-.844-.594-.281-1.219-.281-1.344 0-2.031 1.078-.687 1.062-.687 3.156t.687 3.172q.688 1.062 2.031 1.062.625 0 1.219-.265.594-.281 1.219-.86z"/><text x="238.5" y="32.78" fill="#D9B8FF" font-family="Helvetica" font-size="17" textLength="229">aws_sagemaker_workteam</text><rect width="160" height="39.789" x="504" y="206.58" fill="#3D176E" rx="2.5" ry="2.5" style="stroke:#000d19;stroke-width:.5"/><circle cx="519" cy="226.475" r="11" fill="#ADD1B2" style="stroke:#181818;stroke-width:1"/><path d="M521.969 232.115q-.578.297-1.219.438-.64.156-1.344.156-2.5 0-3.828-1.64-1.312-1.657-1.312-4.782t1.312-4.781q1.328-1.656 3.828-1.656.703 0 1.344.156.656.156 1.219.453v2.719q-.625-.578-1.219-.844-.594-.281-1.219-.281-1.343 0-2.031 1.078-.687 1.062-.687 3.156t.687 3.172q.688 1.062 2.031 1.062.625 0 1.219-.265.594-.281 1.219-.86z"/><text x="538" y="232.36" fill="#D9B8FF" font-family="Helvetica" font-size="17" textLength="118">aws_sns_topic</text><path fill="none" d="M176.21 147.01c-14.9 17.14-32.625 37.52-47.515 54.66" style="stroke:#1a83af;stroke-width:2"/><path fill="#1A83AF" d="m124.76 206.2 8.922-4.171-5.643.396-.396-5.643z" style="stroke:#1a83af;stroke-width:2"/><path fill="none" d="M506.16 147.01c17.01 17.14 37.495 37.79 54.495 54.93" style="stroke:#1a83af;stroke-width:2"/><path fill="#1A83AF" d="m564.88 206.2-3.498-9.207-.023 5.657-5.657-.023z" style="stroke:#1a83af;stroke-width:2"/><path fill="none" d="M216.82 47.29C150.38 60.53 77.97 80.47 58 106.79c-23.51 31 3.998 70.256 26.618 95.066" style="stroke:#1a83af;stroke-width:2"/><path fill="#1A83AF" d="m88.66 206.29-3.108-9.346-.26 5.651-5.651-.26z" style="stroke:#1a83af;stroke-width:2"/><path fill="none" d="M310.96 47.22c-25.77 17.14-58.225 38.726-83.985 55.866" style="stroke:#1a83af;stroke-width:2"/><path fill="#1A83AF" d="m221.98 106.41 9.709-1.655-5.546-1.115 1.114-5.546z" style="stroke:#1a83af;stroke-width:2"/><path fill="none" d="M369.04 47.22c25.77 17.14 58.235 38.725 83.985 55.865" style="stroke:#1a83af;stroke-width:2"/><path fill="#1A83AF" d="m458.02 106.41-5.276-8.317 1.114 5.546-5.546 1.114z" style="stroke:#1a83af;stroke-width:2"/><path fill="none" d="M475.64 46.17C547.46 58.93 625.25 78.74 647 106.79c24.73 31.89-8.296 70.838-35.196 95.358" style="stroke:#1a83af;stroke-width:2"/><path fill="#1A83AF" d="m607.37 206.19 9.346-3.107-5.65-.261.26-5.651z" style="stroke:#1a83af;stroke-width:2"/></svg>
